svg/face-plain.svg

<?xml version="1.0" encoding="UTF-8" standalone="no"?>
<!-- Created with Inkscape (http://www.inkscape.org/) -->
<svg
   xmlns:dc="http://purl.org/dc/elements/1.1/"
   xmlns:cc="http://creativecommons.org/ns#"
   xmlns:rdf="http://www.w3.org/1999/02/22-rdf-syntax-ns#"
   xmlns:svg="http://www.w3.org/2000/svg"
   xmlns="http://www.w3.org/2000/svg"
   xmlns:xlink="http://www.w3.org/1999/xlink"
   xmlns:sodipodi="http://sodipodi.sourceforge.net/DTD/sodipodi-0.dtd"
   xmlns:inkscape="http://www.inkscape.org/namespaces/inkscape"
   sodipodi:docname="face-plain.svg"
   sodipodi:docbase="/home/steven/projects/tango/Experiments/faces/scalable"
   inkscape:version="0.46"
   sodipodi:version="0.32"
   id="svg4376"
   height="48px"
   width="48px"
   inkscape:export-filename="/home/steven/face-plain4.png"
   inkscape:export-xdpi="90"
   inkscape:export-ydpi="90"
   inkscape:output_extension="org.inkscape.output.svg.inkscape">
  <defs
     id="defs3">
    <inkscape:perspective
       sodipodi:type="inkscape:persp3d"
       inkscape:vp_x="0 : 24 : 1"
       inkscape:vp_y="0 : 1000 : 0"
       inkscape:vp_z="48 : 24 : 1"
       inkscape:persp3d-origin="24 : 16 : 1"
       id="perspective42" />
    <linearGradient
       id="linearGradient3290">
      <stop
         id="stop3292"
         offset="0.0000000"
         style="stop-color:#fffcde;stop-opacity:1.0000000;" />
      <stop
         style="stop-color:#f6e76a;stop-opacity:1.0000000;"
         offset="0.64485979"
         id="stop3294" />
      <stop
         id="stop3296"
         offset="1.0000000"
         style="stop-color:#ffb738;stop-opacity:1.0000000;" />
    </linearGradient>
    <radialGradient
       r="8.9020796"
       fy="15.755712"
       fx="29.158466"
       cy="15.720984"
       cx="29.288071"
       gradientUnits="userSpaceOnUse"
       id="radialGradient2714"
       xlink:href="#linearGradient3290"
       inkscape:collect="always" />
    <linearGradient
       id="linearGradient2509">
      <stop
         style="stop-color:#fffbd5;stop-opacity:1.0000000;"
         offset="0.0000000"
         id="stop2511" />
      <stop
         style="stop-color:#edd400;stop-opacity:1.0000000;"
         offset="1.0000000"
         id="stop2513" />
    </linearGradient>
    <radialGradient
       gradientTransform="matrix(1.25,0,0,1.25,53.52055,-13.37211)"
       id="aigrd2"
       cx="25.0527"
       cy="39.5928"
       r="15.7572"
       fx="25.0527"
       fy="39.5928"
       gradientUnits="userSpaceOnUse">
      <stop
         offset="0.0000000"
         style="stop-color:#777777;stop-opacity:1.0000000;"
         id="stop8602" />
      <stop
         offset="1"
         style="stop-color:#000000"
         id="stop8604" />
    </radialGradient>
    <linearGradient
       id="linearGradient4565"
       inkscape:collect="always">
      <stop
         id="stop4567"
         offset="0"
         style="stop-color:#000000;stop-opacity:1;" />
      <stop
         id="stop4569"
         offset="1"
         style="stop-color:#000000;stop-opacity:0;" />
    </linearGradient>
    <linearGradient
       id="linearGradient3824">
      <stop
         id="stop3826"
         offset="0"
         style="stop-color:#ffffff;stop-opacity:1;" />
      <stop
         id="stop3828"
         offset="1.0000000"
         style="stop-color:#c9c9c9;stop-opacity:1.0000000;" />
    </linearGradient>
    <linearGradient
       id="linearGradient3800">
      <stop
         id="stop3802"
         offset="0.0000000"
         style="stop-color:#ffeed6;stop-opacity:1.0000000;" />
      <stop
         style="stop-color:#e49c2f;stop-opacity:1.0000000;"
         offset="0.50000000"
         id="stop8664" />
      <stop
         id="stop3804"
         offset="1.0000000"
         style="stop-color:#ffc66c;stop-opacity:1.0000000;" />
    </linearGradient>
    <radialGradient
       gradientUnits="userSpaceOnUse"
       gradientTransform="matrix(1.000000,0.000000,0.000000,0.333333,0.000000,25.71429)"
       r="19.714285"
       fy="38.571430"
       fx="24.714285"
       cy="38.571430"
       cx="24.714285"
       id="radialGradient4571"
       xlink:href="#linearGradient4565"
       inkscape:collect="always" />
    <radialGradient
       inkscape:collect="always"
       xlink:href="#aigrd2"
       id="radialGradient2211"
       gradientUnits="userSpaceOnUse"
       gradientTransform="matrix(1.25,0,0,1.25,39.41053,-19.20819)"
       cx="25.0527"
       cy="39.5928"
       fx="25.0527"
       fy="39.5928"
       r="15.7572" />
    <radialGradient
       inkscape:collect="always"
       xlink:href="#aigrd2"
       id="radialGradient2213"
       gradientUnits="userSpaceOnUse"
       gradientTransform="matrix(1.357899,0,0,0.416667,55.84561,15.2093)"
       cx="-23.452122"
       cy="38.602852"
       fx="-23.452122"
       fy="38.602852"
       r="15.7572" />
    <radialGradient
       inkscape:collect="always"
       xlink:href="#aigrd2"
       id="radialGradient1342"
       gradientUnits="userSpaceOnUse"
       gradientTransform="matrix(0.28431,0,0,0.416667,30.45155,18.23307)"
       cx="-23.452122"
       cy="38.602852"
       fx="-23.452122"
       fy="38.602852"
       r="15.7572" />
  </defs>
  <sodipodi:namedview
     inkscape:window-y="77"
     inkscape:window-x="373"
     inkscape:window-height="771"
     inkscape:window-width="1055"
     inkscape:showpageshadow="false"
     inkscape:document-units="px"
     inkscape:grid-bbox="true"
     showgrid="false"
     inkscape:current-layer="layer1"
     inkscape:cy="22.183359"
     inkscape:cx="28.123476"
     inkscape:zoom="1"
     inkscape:pageshadow="2"
     inkscape:pageopacity="0.0"
     borderopacity="0.19607843"
     bordercolor="#666666"
     pagecolor="#ffffff"
     id="base"
     fill="#edd400" />
  <metadata
     id="metadata4">
    <rdf:RDF>
      <cc:Work
         rdf:about="">
        <dc:format>image/svg+xml</dc:format>
        <dc:type
           rdf:resource="http://purl.org/dc/dcmitype/StillImage" />
        <dc:title>Face - Plain</dc:title>
        <dc:subject>
          <rdf:Bag>
            <rdf:li>emoticon</rdf:li>
            <rdf:li>emote</rdf:li>
            <rdf:li>face</rdf:li>
            <rdf:li>plain</rdf:li>
            <rdf:li>:|</rdf:li>
            <rdf:li>:-|</rdf:li>
          </rdf:Bag>
        </dc:subject>
        <cc:license
           rdf:resource="http://creativecommons.org/licenses/publicdomain/" />
        <dc:creator>
          <cc:Agent>
            <dc:title>Steven Garrity</dc:title>
          </cc:Agent>
        </dc:creator>
        <dc:source>http://www.tango-project.org</dc:source>
        <dc:contributor>
          <cc:Agent>
            <dc:title>Based on face-smile by jimmac</dc:title>
          </cc:Agent>
        </dc:contributor>
      </cc:Work>
      <cc:License
         rdf:about="http://creativecommons.org/licenses/publicdomain/">
        <cc:permits
           rdf:resource="http://creativecommons.org/ns#Reproduction" />
        <cc:permits
           rdf:resource="http://creativecommons.org/ns#Distribution" />
        <cc:permits
           rdf:resource="http://creativecommons.org/ns#DerivativeWorks" />
      </cc:License>
    </rdf:RDF>
  </metadata>
  <g
     inkscape:groupmode="layer"
     inkscape:label="Layer 1"
     id="layer1">
    <path
       d="M 44.428570 38.571430 A 19.714285 6.5714288 0 1 1  5.0000000,38.571430 A 19.714285 6.5714288 0 1 1  44.428570 38.571430 z"
       sodipodi:ry="6.5714288"
       sodipodi:rx="19.714285"
       sodipodi:cy="38.571430"
       sodipodi:cx="24.714285"
       id="path4563"
       style="opacity:0.53164557;color:#000000;fill:url(#radialGradient4571);fill-opacity:1.0;fill-rule:evenodd;stroke:none;stroke-width:0.40487173;stroke-linecap:round;stroke-linejoin:round;marker:none;marker-start:none;marker-mid:none;marker-end:none;stroke-miterlimit:4.0000000;stroke-dasharray:none;stroke-dashoffset:0.0000000;stroke-opacity:1.0000000;visibility:visible;display:inline;overflow:visible"
       sodipodi:type="arc" />
    <path
       transform="matrix(2.083142,0.000000,0.000000,2.083142,-40.54715,-16.49224)"
       d="M 39.774755 19.008621 A 8.6620579 8.6620579 0 1 1  22.450640,19.008621 A 8.6620579 8.6620579 0 1 1  39.774755 19.008621 z"
       sodipodi:ry="8.6620579"
       sodipodi:rx="8.6620579"
       sodipodi:cy="19.008621"
       sodipodi:cx="31.112698"
       id="path4320"
       style="overflow:visible;display:inline;visibility:visible;stroke-opacity:1.0000000;stroke-dashoffset:0.0000000;stroke-dasharray:none;stroke-miterlimit:4.0000000;marker-end:none;marker-mid:none;marker-start:none;marker:none;stroke-linejoin:round;stroke-linecap:round;stroke-width:0.48004404;stroke:#9c8c0a;fill-rule:evenodd;fill-opacity:1.0000000;fill:url(#radialGradient2714);color:#000000;opacity:1.0000000"
       sodipodi:type="arc" />
    <path
       transform="matrix(1.979782,0.000000,0.000000,1.979782,-37.33128,-14.52746)"
       sodipodi:type="arc"
       style="opacity:0.67721519;color:#000000;fill:none;fill-opacity:1.0000000;fill-rule:evenodd;stroke:#ffffff;stroke-width:0.50510627;stroke-linecap:round;stroke-linejoin:round;marker:none;marker-start:none;marker-mid:none;marker-end:none;stroke-miterlimit:4.0000000;stroke-dasharray:none;stroke-dashoffset:0.0000000;stroke-opacity:1.0000000;visibility:visible;display:inline;overflow:visible"
       id="path4322"
       sodipodi:cx="31.112698"
       sodipodi:cy="19.008621"
       sodipodi:rx="8.6620579"
       sodipodi:ry="8.6620579"
       d="M 39.774755 19.008621 A 8.6620579 8.6620579 0 1 1  22.450640,19.008621 A 8.6620579 8.6620579 0 1 1  39.774755 19.008621 z" />
    <g
       transform="matrix(1,0,0,0.74952,0.353553,7.357569)"
       id="g8666">
      <path
         style="opacity:0.36000001;fill:#ffffff;fill-rule:nonzero;stroke:none;stroke-miterlimit:4"
         d="M 21.398158,15.321428 C 21.398158,17.821428 20.273158,19.821428 18.898158,19.821428 C 17.523158,19.821428 16.273158,17.821428 16.273158,15.321428 C 16.273158,12.821428 17.398158,10.821428 18.773158,10.821428 C 20.148158,10.821428 21.273158,12.821428 21.273158,15.321428 L 21.398158,15.321428 z "
         id="path8610" />
      <path
         style="opacity:0.36000001;fill:#ffffff;fill-rule:nonzero;stroke:none;stroke-miterlimit:4"
         d="M 30.688512,15.321428 C 30.688512,17.821428 29.563512,19.821428 28.188512,19.821428 C 26.813512,19.821428 25.688512,17.821428 25.688512,15.321428 C 25.688512,12.821428 26.813512,10.821428 28.188512,10.821428 C 29.563512,10.821428 30.688512,12.821428 30.688512,15.321428 z "
         id="path8612" />
      <path
         style="fill:#000000;fill-rule:nonzero;stroke:none;stroke-miterlimit:4"
         d="M 21.398158,14.696428 C 21.398158,17.196428 20.273158,19.196428 18.898158,19.196428 C 17.523158,19.196428 16.398158,17.196428 16.398158,14.696428 C 16.398158,12.196428 17.523158,10.196428 18.898158,10.196428 C 20.273158,10.196428 21.398158,12.196428 21.398158,14.696428 z "
         id="path8614" />
      <path
         style="fill:#000000;fill-rule:nonzero;stroke:none;stroke-miterlimit:4"
         d="M 30.688512,14.696428 C 30.688512,17.196428 29.563512,19.196428 28.188512,19.196428 C 26.813512,19.196428 25.688512,17.196428 25.688512,14.696428 C 25.688512,12.196428 26.813512,10.196428 28.188512,10.196428 C 29.563512,10.196428 30.688512,12.196428 30.688512,14.696428 z "
         id="path8616" />
    </g>
    <rect
       style="opacity:1;color:#000000;fill:url(#radialGradient2213);fill-opacity:1;fill-rule:nonzero;stroke:none;stroke-width:1;stroke-linecap:butt;stroke-linejoin:miter;marker:none;marker-start:none;marker-mid:none;marker-end:none;stroke-miterlimit:4;stroke-dasharray:none;stroke-dashoffset:0;stroke-opacity:1;visibility:visible;display:inline;overflow:visible"
       id="rect2453"
       width="20"
       height="1"
       x="14"
       y="29"
       rx="0.5"
       ry="0.5" />
    <rect
       style="opacity:0.36000001;color:#000000;fill:#ffffff;fill-opacity:1;fill-rule:nonzero;stroke:none;stroke-width:1;stroke-linecap:butt;stroke-linejoin:miter;marker:none;marker-start:none;marker-mid:none;marker-end:none;stroke-miterlimit:4;stroke-dasharray:none;stroke-dashoffset:0;stroke-opacity:1;visibility:visible;display:inline;overflow:visible"
       id="rect1336"
       width="20"
       height="1"
       x="14"
       y="30"
       rx="0.5"
       ry="0.5" />
  </g>
</svg>

<?xml version="1.0" encoding="UTF-8" standalone="no"?>
<!-- Created with Inkscape (http://www.inkscape.org/) -->

<svg
   xmlns:dc="http://purl.org/dc/elements/1.1/"
   xmlns:cc="http://creativecommons.org/ns#"
   xmlns:rdf="http://www.w3.org/1999/02/22-rdf-syntax-ns#"
   xmlns:svg="http://www.w3.org/2000/svg"
   xmlns="http://www.w3.org/2000/svg"
   xmlns:xlink="http://www.w3.org/1999/xlink"
   xmlns:sodipodi="http://sodipodi.sourceforge.net/DTD/sodipodi-0.dtd"
   xmlns:inkscape="http://www.inkscape.org/namespaces/inkscape"
   sodipodi:docname="face-plain.svg"
   inkscape:version="0.92.2 (5c3e80d, 2017-08-06)"
   sodipodi:version="0.32"
   id="svg4376"
   height="22"
   width="22"
   inkscape:export-filename="/home/steven/face-plain4.png"
   inkscape:export-xdpi="90"
   inkscape:export-ydpi="90"
   inkscape:output_extension="org.inkscape.output.svg.inkscape"
   version="1.1">
  <defs
     id="defs3">
    <inkscape:perspective
       sodipodi:type="inkscape:persp3d"
       inkscape:vp_x="0 : 24 : 1"
       inkscape:vp_y="0 : 1000 : 0"
       inkscape:vp_z="48 : 24 : 1"
       inkscape:persp3d-origin="24 : 16 : 1"
       id="perspective42" />
    <linearGradient
       id="linearGradient3290">
      <stop
         id="stop3292"
         offset="0.0000000"
         style="stop-color:#fffcde;stop-opacity:1.0000000;" />
      <stop
         style="stop-color:#f6e76a;stop-opacity:1.0000000;"
         offset="0.64485979"
         id="stop3294" />
      <stop
         id="stop3296"
         offset="1.0000000"
         style="stop-color:#ffb738;stop-opacity:1.0000000;" />
    </linearGradient>
    <radialGradient
       r="8.9020796"
       fy="15.755712"
       fx="29.158466"
       cy="15.720984"
       cx="29.288071"
       gradientUnits="userSpaceOnUse"
       id="radialGradient2714"
       xlink:href="#linearGradient3290"
       inkscape:collect="always"
       gradientTransform="matrix(1.0779721,0,0,1.0779721,-22.771105,15.605431)" />
    <linearGradient
       id="linearGradient2509">
      <stop
         style="stop-color:#fffbd5;stop-opacity:1.0000000;"
         offset="0.0000000"
         id="stop2511" />
      <stop
         style="stop-color:#edd400;stop-opacity:1.0000000;"
         offset="1.0000000"
         id="stop2513" />
    </linearGradient>
    <radialGradient
       gradientTransform="matrix(1.25,0,0,1.25,53.52055,-13.37211)"
       id="aigrd2"
       cx="25.0527"
       cy="39.5928"
       r="15.7572"
       fx="25.0527"
       fy="39.5928"
       gradientUnits="userSpaceOnUse">
      <stop
         offset="0.0000000"
         style="stop-color:#777777;stop-opacity:1.0000000;"
         id="stop8602" />
      <stop
         offset="1"
         style="stop-color:#000000"
         id="stop8604" />
    </radialGradient>
    <linearGradient
       id="linearGradient4565"
       inkscape:collect="always">
      <stop
         id="stop4567"
         offset="0"
         style="stop-color:#000000;stop-opacity:1;" />
      <stop
         id="stop4569"
         offset="1"
         style="stop-color:#000000;stop-opacity:0;" />
    </linearGradient>
    <linearGradient
       id="linearGradient3824">
      <stop
         id="stop3826"
         offset="0"
         style="stop-color:#ffffff;stop-opacity:1;" />
      <stop
         id="stop3828"
         offset="1.0000000"
         style="stop-color:#c9c9c9;stop-opacity:1.0000000;" />
    </linearGradient>
    <linearGradient
       id="linearGradient3800">
      <stop
         id="stop3802"
         offset="0.0000000"
         style="stop-color:#ffeed6;stop-opacity:1.0000000;" />
      <stop
         style="stop-color:#e49c2f;stop-opacity:1.0000000;"
         offset="0.50000000"
         id="stop8664" />
      <stop
         id="stop3804"
         offset="1.0000000"
         style="stop-color:#ffc66c;stop-opacity:1.0000000;" />
    </linearGradient>
    <radialGradient
       gradientUnits="userSpaceOnUse"
       gradientTransform="matrix(0.51747414,0,0,0.17249121,-1.7890029,37.446219)"
       r="19.714285"
       fy="38.57143"
       fx="24.714285"
       cy="38.57143"
       cx="24.714285"
       id="radialGradient4571"
       xlink:href="#linearGradient4565"
       inkscape:collect="always" />
    <radialGradient
       inkscape:collect="always"
       xlink:href="#aigrd2"
       id="radialGradient2211"
       gradientUnits="userSpaceOnUse"
       gradientTransform="matrix(1.25,0,0,1.25,39.41053,-19.20819)"
       cx="25.0527"
       cy="39.5928"
       fx="25.0527"
       fy="39.5928"
       r="15.7572" />
    <radialGradient
       inkscape:collect="always"
       xlink:href="#aigrd2"
       id="radialGradient2213"
       gradientUnits="userSpaceOnUse"
       gradientTransform="matrix(0.70267762,0,0,0.2156144,27.109656,32.010158)"
       cx="-23.452122"
       cy="38.602852"
       fx="-23.452122"
       fy="38.602852"
       r="15.7572" />
    <radialGradient
       inkscape:collect="always"
       xlink:href="#aigrd2"
       id="radialGradient1342"
       gradientUnits="userSpaceOnUse"
       gradientTransform="matrix(0.28431,0,0,0.416667,30.45155,18.23307)"
       cx="-23.452122"
       cy="38.602852"
       fx="-23.452122"
       fy="38.602852"
       r="15.7572" />
  </defs>
  <sodipodi:namedview
     inkscape:window-y="-8"
     inkscape:window-x="-8"
     inkscape:window-height="1017"
     inkscape:window-width="1920"
     inkscape:showpageshadow="false"
     inkscape:document-units="px"
     inkscape:grid-bbox="true"
     showgrid="false"
     inkscape:current-layer="layer1"
     inkscape:cy="22.183359"
     inkscape:cx="-142.37652"
     inkscape:zoom="1"
     inkscape:pageshadow="2"
     inkscape:pageopacity="0.0"
     borderopacity="0.19607843"
     bordercolor="#666666"
     pagecolor="#ffffff"
     id="base"
     fill="#edd400"
     inkscape:window-maximized="1" />
  <metadata
     id="metadata4">
    <rdf:RDF>
      <cc:Work
         rdf:about="">
        <dc:format>image/svg+xml</dc:format>
        <dc:type
           rdf:resource="http://purl.org/dc/dcmitype/StillImage" />
        <dc:title>Face - Plain</dc:title>
        <dc:subject>
          <rdf:Bag>
            <rdf:li>emoticon</rdf:li>
            <rdf:li>emote</rdf:li>
            <rdf:li>face</rdf:li>
            <rdf:li>plain</rdf:li>
            <rdf:li>:|</rdf:li>
            <rdf:li>:-|</rdf:li>
          </rdf:Bag>
        </dc:subject>
        <cc:license
           rdf:resource="http://creativecommons.org/publicdomain/zero/1.0/" />
        <dc:creator>
          <cc:Agent>
            <dc:title>Steven Garrity</dc:title>
          </cc:Agent>
        </dc:creator>
        <dc:source>http://www.tango-project.org</dc:source>
        <dc:contributor>
          <cc:Agent>
            <dc:title>Based on face-smile by jimmac</dc:title>
          </cc:Agent>
        </dc:contributor>
      </cc:Work>
      <cc:License
         rdf:about="http://creativecommons.org/publicdomain/zero/1.0/">
        <cc:permits
           rdf:resource="http://creativecommons.org/ns#Reproduction" />
        <cc:permits
           rdf:resource="http://creativecommons.org/ns#Distribution" />
        <cc:permits
           rdf:resource="http://creativecommons.org/ns#DerivativeWorks" />
      </cc:License>
    </rdf:RDF>
  </metadata>
  <g
     inkscape:groupmode="layer"
     inkscape:label="Layer 1"
     id="layer1"
     transform="translate(0,-26)">
    <ellipse
       id="path4563"
       style="color:#000000;display:inline;overflow:visible;visibility:visible;opacity:0.53164559;fill:url(#radialGradient4571);fill-opacity:1;fill-rule:evenodd;stroke:none;stroke-width:0.20951065;stroke-linecap:round;stroke-linejoin:round;stroke-miterlimit:4;stroke-dasharray:none;stroke-dashoffset:0;stroke-opacity:1;marker:none;marker-start:none;marker-mid:none;marker-end:none"
       cx="11"
       cy="44.099457"
       rx="10.201632"
       ry="3.4005444" />
    <circle
       id="path4320"
       style="color:#000000;display:inline;overflow:visible;visibility:visible;opacity:1;fill:url(#radialGradient2714);fill-opacity:1;fill-rule:evenodd;stroke:#9c8c0a;stroke-width:0.51747406;stroke-linecap:round;stroke-linejoin:round;stroke-miterlimit:4;stroke-dasharray:none;stroke-dashoffset:0;stroke-opacity:1;marker:none;marker-start:none;marker-mid:none;marker-end:none"
       cx="10.767515"
       cy="36.096195"
       r="9.3374567" />
    <circle
       style="color:#000000;display:inline;overflow:visible;visibility:visible;opacity:0.67721522;fill:none;fill-opacity:1;fill-rule:evenodd;stroke:#ffffff;stroke-width:0.51747429;stroke-linecap:round;stroke-linejoin:round;stroke-miterlimit:4;stroke-dasharray:none;stroke-dashoffset:0;stroke-opacity:1;marker:none;marker-start:none;marker-mid:none;marker-end:none"
       id="path4322"
       cx="10.767548"
       cy="36.096222"
       r="8.874157" />
    <g
       transform="matrix(0.51747414,0,0,0.38785722,-1.6060489,27.947091)"
       id="g8666">
      <path
         style="opacity:0.36000001;fill:#ffffff;fill-rule:nonzero;stroke:none;stroke-miterlimit:4"
         d="m 21.398158,15.321428 c 0,2.5 -1.125,4.5 -2.5,4.5 -1.375,0 -2.625,-2 -2.625,-4.5 0,-2.5 1.125,-4.5 2.5,-4.5 1.375,0 2.5,2 2.5,4.5 z"
         id="path8610"
         inkscape:connector-curvature="0" />
      <path
         style="opacity:0.36000001;fill:#ffffff;fill-rule:nonzero;stroke:none;stroke-miterlimit:4"
         d="m 30.688512,15.321428 c 0,2.5 -1.125,4.5 -2.5,4.5 -1.375,0 -2.5,-2 -2.5,-4.5 0,-2.5 1.125,-4.5 2.5,-4.5 1.375,0 2.5,2 2.5,4.5 z"
         id="path8612"
         inkscape:connector-curvature="0" />
      <path
         style="fill:#000000;fill-rule:nonzero;stroke:none;stroke-miterlimit:4"
         d="m 21.398158,14.696428 c 0,2.5 -1.125,4.5 -2.5,4.5 -1.375,0 -2.5,-2 -2.5,-4.5 0,-2.5 1.125,-4.5 2.5,-4.5 1.375,0 2.5,2 2.5,4.5 z"
         id="path8614"
         inkscape:connector-curvature="0" />
      <path
         style="fill:#000000;fill-rule:nonzero;stroke:none;stroke-miterlimit:4"
         d="m 30.688512,14.696428 c 0,2.5 -1.125,4.5 -2.5,4.5 -1.375,0 -2.5,-2 -2.5,-4.5 0,-2.5 1.125,-4.5 2.5,-4.5 1.375,0 2.5,2 2.5,4.5 z"
         id="path8616"
         inkscape:connector-curvature="0" />
    </g>
    <rect
       style="color:#000000;display:inline;overflow:visible;visibility:visible;opacity:1;fill:url(#radialGradient2213);fill-opacity:1;fill-rule:nonzero;stroke:none;stroke-width:0.51747411;stroke-linecap:butt;stroke-linejoin:miter;stroke-miterlimit:4;stroke-dasharray:none;stroke-dashoffset:0;stroke-opacity:1;marker:none;marker-start:none;marker-mid:none;marker-end:none"
       id="rect2453"
       width="10.349483"
       height="0.51747411"
       x="5.4556351"
       y="39.146488"
       rx="0.25873706"
       ry="0.25873706" />
    <rect
       style="color:#000000;display:inline;overflow:visible;visibility:visible;opacity:0.36000001;fill:#ffffff;fill-opacity:1;fill-rule:nonzero;stroke:none;stroke-width:0.51747411;stroke-linecap:butt;stroke-linejoin:miter;stroke-miterlimit:4;stroke-dasharray:none;stroke-dashoffset:0;stroke-opacity:1;marker:none;marker-start:none;marker-mid:none;marker-end:none"
       id="rect1336"
       width="10.349483"
       height="0.51747411"
       x="5.4556351"
       y="39.663963"
       rx="0.25873706"
       ry="0.25873706" />
  </g>
</svg>
